packages/gestalt/src/icons/arrow-circle-forward.svg

<svg width="24" height="24" xmlns="http://www.w3.org/2000/svg"><path fill="#B5B5B5" d="M12.94 16.07c-.49.48-1.28.48-1.77 0a1.25 1.25 0 0 1 0-1.77l1.06-1.07H8.25a1.25 1.25 0 0 1 0-2.5h3.95L11.17 9.7a1.25 1.25 0 0 1 0-1.77c.49-.48 1.28-.48 1.77 0L17 12l-4.06 4.07zM12 0C5.37 0 0 5.37 0 12s5.37 12 12 12 12-5.37 12-12S18.63 0 12 0z"/></svg>

<svg width="24" height="24" viewBox="0 0 24 24" xmlns="http://www.w3.org/2000/svg"><path fill="#aeaeae" d="M12.94,16.07 C12.45,16.55 11.66,16.55 11.17,16.07 C10.68,15.58 10.68,14.79 11.17,14.30 L12.23,13.23 L8.25,13.23 C7.56,13.23 7.00,12.67 7.00,11.98 C7.00,11.29 7.56,10.73 8.25,10.73 L12.20,10.73 L11.17,9.70 C10.68,9.21 10.68,8.42 11.17,7.93 C11.66,7.45 12.45,7.45 12.94,7.93 L17.00,12.00 L12.94,16.07 Z M12.00,0.00 C5.37,0.00 0.00,5.37 0.00,12.00 C0.00,18.63 5.37,24.00 12.00,24.00 C18.63,24.00 24.00,18.63 24.00,12.00 C24.00,5.37 18.63,0.00 12.00,0.00 L12.00,0.00 Z"/></svg>
